src/assets/icons/actions/website.svg

<?xml version="1.0" encoding="UTF-8"?>
<svg width="24px" height="24px" viewBox="0 0 24 24" version="1.1" xmlns="http://www.w3.org/2000/svg" xmlns:xlink="http://www.w3.org/1999/xlink">
    <title>icon/action-vignette-website</title>
    <defs>
        <path d="M12,3 C7.032,3 3,7.032 3,12 C3,16.968 7.032,21 12,21 C16.968,21 21,16.968 21,12 C21,7.032 16.968,3 12,3 Z M11.1,19.137 C7.545,18.696 4.8,15.672 4.8,12 C4.8,11.442 4.872,10.911 4.989,10.389 L9.3,14.7 L9.3,15.6 C9.3,16.59 10.11,17.4 11.1,17.4 L11.1,19.137 Z M17.31,16.851 C17.076,16.122 16.41,15.6 15.6,15.6 L14.7,15.6 L14.7,12.9 C14.7,12.405 14.295,12 13.8,12 L8.4,12 L8.4,10.2 L10.2,10.2 C10.695,10.2 11.1,9.795 11.1,9.3 L11.1,7.5 L12.9,7.5 C13.89,7.5 14.7,6.69 14.7,5.7 L14.7,5.331 C17.337,6.402 19.2,8.985 19.2,12 C19.2,13.872 18.48,15.573 17.31,16.851 Z" id="path-1"></path>
    </defs>
    <g id="icon/action-vignette-website" stroke="none" stroke-width="1" fill="none" fill-rule="evenodd">
        <mask id="mask-2" fill="white">
            <use xlink:href="#path-1"></use>
        </mask>
        <use id="icon/social/publicon/social/24px" stroke="#FFFFFF" stroke-width="0.5" fill="#255033" fill-rule="nonzero" stroke-linejoin="round" xlink:href="#path-1"></use>
    </g>
</svg>

<?xml version="1.0" encoding="utf-8"?>
<!-- Generator: Adobe Illustrator 25.0.0, SVG Export Plug-In . SVG Version: 6.00 Build 0)  -->
<svg version="1.1" id="Calque_1" xmlns="http://www.w3.org/2000/svg" xmlns:xlink="http://www.w3.org/1999/xlink" x="0px" y="0px"
	 viewBox="0 0 24 24" style="enable-background:new 0 0 24 24;" xml:space="preserve">
<style type="text/css">
	.st0{fill:#062172;stroke:#FFFFFF;stroke-width:0.5;stroke-linejoin:round;}
</style>
<g id="icon_x2F_action-vignette-website">
	<g id="icon_x2F_social_x2F_publicon_x2F_social_x2F_24px">
		<path id="path-1_1_" class="st0" d="M12,3c-5,0-9,4-9,9s4,9,9,9s9-4,9-9S17,3,12,3z M11.1,19.1c-3.6-0.4-6.3-3.5-6.3-7.1
			c0-0.6,0.1-1.1,0.2-1.6l4.3,4.3v0.9c0,1,0.8,1.8,1.8,1.8V19.1z M17.3,16.9c-0.2-0.7-0.9-1.3-1.7-1.3h-0.9v-2.7
			c0-0.5-0.4-0.9-0.9-0.9H8.4v-1.8h1.8c0.5,0,0.9-0.4,0.9-0.9V7.5h1.8c1,0,1.8-0.8,1.8-1.8V5.3c2.6,1.1,4.5,3.7,4.5,6.7
			C19.2,13.9,18.5,15.6,17.3,16.9z"/>
	</g>
</g>
</svg>
